X: 33693
T: Randalf's Leap
R: waltz
M: 3/4
K: Cmajor
"Am"ea ag ed|ec A2 (3Bcd|ea ag ed|"G"g3 a ed|
"Am"ea ag ed|ec A2 AG|GED (3E^FG AB|1 "Am"A2 AB cd:|2 "Am"A3 B cB||
|:"Am"AE AB cd|ec AE ce|"G"dB GD GA|(3"E7"Bcd ed cB|"Am"AE AB cd|
ec AE ce|1 "G"dB AG ED|"Am"A3 B cB:|2 "D"e^f fd fd|"G"g3 a ed||

